X: 48
T: the Shamrock Shore   #2
R: air
%S: s:2 b:16(8+8)
B: "O'Neill's 1850 *48"
Q: "Moderate"
O: F.O'Neill
Z: Norbert Paap, norbertp@bdu.uva.nl
N: Compacted by using labels and play order [JC]
P: Play A1 BB A2
M: C
L: 1/8
K: D
"^A1"[| D2 | G2(FG) (EFGA) | (B2ec) (d3/B/)AF | (EFGE) D2D2 | D6 |]
"^B" |: (AB/c/) | d2(cd) B2(cd) | edcB A2FA | B3 F AFDF | E6 :|
"^A2"[| (DE/F/) | G2FG EFGA | B2ef d3/B/AF | EFGE D2D2 | D6 |]
